assets/img/braze_icons/dataflow-01.svg

<svg fill="none" height="24" viewBox="0 0 24 24" width="24" xmlns="http://www.w3.org/2000/svg"><path clip-rule="evenodd" d="m14.911 5.03755c.3302-.02697.7315-.03458 1.26-.03672.4121 1.16476 1.5231 1.99917 2.829 1.99917 1.6569 0 3-1.34315 3-3s-1.3431-3-3-3c-1.3065 0-2.4179.83515-2.8295 2.00072-.5473.00213-1.019.01052-1.4223.04347-.5621.04593-1.0788.14449-1.5642.39178-.7526.3835-1.3645.99542-1.748 1.74807-.2473.48533-.3459 1.00204-.3918 1.56414-.0442.54117-.0442 1.20551-.0442 2.01045v2.24137h-3.17071c-.41183-1.16519-1.52307-2-2.82929-2-1.65685 0-3 1.3431-3 3s1.34315 3 3 3c1.30622 0 2.41746-.8348 2.82929-2h3.17071v2.2413c0 .8049 0 1.4693.0442 2.0105.0459.5621.1445 1.0788.3918 1.5642.3835.7526.9954 1.3645 1.748 1.748.4854.2473 1.0021.3459 1.5642.3918.4033.033.875.0413 1.4223.0435.4116 1.1655 1.523 2.0007 2.8295 2.0007 1.6569 0 3-1.3431 3-3s-1.3431-3-3-3c-1.3059 0-2.4169.8344-2.829 1.9992-.5285-.0022-.9298-.0098-1.26-.0367-.4384-.0359-.6626-.1008-.819-.1805-.3763-.1917-.6823-.4977-.874-.874-.0797-.1564-.1446-.3806-.1804-.819-.0368-.4501-.0376-1.0324-.0376-1.889v-2.2h3.1707c.4118 1.1652 1.5231 2 2.8293 2 1.6569 0 3-1.3431 3-3s-1.3431-3-3-3c-1.3062 0-2.4175.83481-2.8293 2h-3.1707v-2.2c0-.85658.0008-1.43887.0376-1.88896.0358-.43842.1007-.66262.1804-.81902.1917-.37632.4977-.68229.874-.87403.1564-.07969.3806-.14462.819-.18044z" fill="#801ed7" fill-rule="evenodd"/></svg>

<svg width="24" height="24" viewBox="0 0 24 24" fill="none" xmlns="http://www.w3.org/2000/svg">
<path fill-rule="evenodd" clip-rule="evenodd" d="M14.911 5.03755C15.2412 5.01058 15.6425 5.00297 16.171 5.00083C16.5831 6.16559 17.6941 7 19 7C20.6569 7 22 5.65685 22 4C22 2.34315 20.6569 1 19 1C17.6935 1 16.5821 1.83515 16.1705 3.00072C15.6232 3.00285 15.1515 3.01124 14.7482 3.04419C14.1861 3.09012 13.6694 3.18868 13.184 3.43597C12.4314 3.81947 11.8195 4.43139 11.436 5.18404C11.1887 5.66937 11.0901 6.18608 11.0442 6.74818C11 7.28935 11 7.95369 11 8.75863V11H7.82929C7.41746 9.83481 6.30622 9 5 9C3.34315 9 2 10.3431 2 12C2 13.6569 3.34315 15 5 15C6.30622 15 7.41746 14.1652 7.82929 13H11V15.2413C11 16.0462 11 16.7106 11.0442 17.2518C11.0901 17.8139 11.1887 18.3306 11.436 18.816C11.8195 19.5686 12.4314 20.1805 13.184 20.564C13.6694 20.8113 14.1861 20.9099 14.7482 20.9558C15.1515 20.9888 15.6232 20.9971 16.1705 20.9993C16.5821 22.1648 17.6935 23 19 23C20.6569 23 22 21.6569 22 20C22 18.3431 20.6569 17 19 17C17.6941 17 16.5831 17.8344 16.171 18.9992C15.6425 18.997 15.2412 18.9894 14.911 18.9625C14.4726 18.9266 14.2484 18.8617 14.092 18.782C13.7157 18.5903 13.4097 18.2843 13.218 17.908C13.1383 17.7516 13.0734 17.5274 13.0376 17.089C13.0008 16.6389 13 16.0566 13 15.2V13H16.1707C16.5825 14.1652 17.6938 15 19 15C20.6569 15 22 13.6569 22 12C22 10.3431 20.6569 9 19 9C17.6938 9 16.5825 9.83481 16.1707 11H13V8.8C13 7.94342 13.0008 7.36113 13.0376 6.91104C13.0734 6.47262 13.1383 6.24842 13.218 6.09202C13.4097 5.7157 13.7157 5.40973 14.092 5.21799C14.2484 5.1383 14.4726 5.07337 14.911 5.03755Z" fill="#801ED7"/>
</svg>
